sources/design/Outline/ഭ.svg

<svg:svg xmlns:cc="http://creativecommons.org/ns#" xmlns:dc="http://purl.org/dc/elements/1.1/" xmlns:inkscape="http://www.inkscape.org/namespaces/inkscape" xmlns:rdf="http://www.w3.org/1999/02/22-rdf-syntax-ns#" xmlns:sodipodi="http://sodipodi.sourceforge.net/DTD/sodipodi-0.dtd" xmlns:svg="http://www.w3.org/2000/svg" xml:space="preserve" width="1000" height="1000" version="1.1" style="clip-rule:evenodd;fill-rule:evenodd;image-rendering:optimizeQuality;shape-rendering:geometricPrecision;text-rendering:geometricPrecision" viewBox="0 0 1000 1000" id="svg10" sodipodi:docname="ഭ.svg" inkscape:version="1.0.2 (e86c870879, 2021-01-15)"><svg:metadata id="metadata14"><rdf:RDF><cc:Work rdf:about=""><dc:format>image/svg+xml</dc:format><dc:type rdf:resource="http://purl.org/dc/dcmitype/StillImage" /><dc:title /></cc:Work></rdf:RDF></svg:metadata><sodipodi:namedview pagecolor="#ffffff" bordercolor="#666666" borderopacity="1" objecttolerance="10" gridtolerance="10" guidetolerance="10" inkscape:pageopacity="0" inkscape:pageshadow="2" inkscape:window-width="1920" inkscape:window-height="1007" id="namedview12" showgrid="false" inkscape:zoom="0.84890884" inkscape:cx="327.86116" inkscape:cy="503.78033" inkscape:window-x="1920" inkscape:window-y="0" inkscape:window-maximized="1" inkscape:current-layer="svg10" showguides="true" inkscape:guide-bbox="true" inkscape:document-rotation="0" inkscape:pagecheckerboard="0"><sodipodi:guide position="0,1000" orientation="0,1" id="guide16" inkscape:label="" inkscape:locked="true" inkscape:color="rgb(0,0,255)" /><sodipodi:guide position="1763.3122,2036.1693" orientation="1000,0" id="guide18" /><sodipodi:guide position="0,200" orientation="0,1" id="guide20" inkscape:label="base" inkscape:locked="true" inkscape:color="rgb(0,0,255)" /><inkscape:grid type="xygrid" id="grid24" originx="-473.37552" originy="-489.69235" /><sodipodi:guide position="0,0" orientation="0,1" id="guide34" inkscape:label="bottom" inkscape:locked="true" inkscape:color="rgb(0,0,255)" /><sodipodi:guide position="225.05109,1693.3186" orientation="0,1" id="guide44" inkscape:label="" inkscape:locked="false" inkscape:color="rgb(0,0,255)" /><sodipodi:guide position="0,900" orientation="0,1" id="guide46" inkscape:label="" inkscape:locked="true" inkscape:color="rgb(0,0,255)" /><sodipodi:guide position="552.33818,623.39461" orientation="-1,0" id="guide841" inkscape:label="width" inkscape:locked="false" inkscape:color="rgb(0,0,255)" /></sodipodi:namedview>
 <svg:defs id="defs4"><inkscape:path-effect effect="fillet_chamfer" id="path-effect843" is_visible="true" lpeversion="1" satellites_param="F,0,1,1,0,31.458082,0,1 @ F,0,1,1,0,31.458082,0,1 @ F,0,0,1,0,0,0,1 @ F,0,0,1,0,0,0,1 @ F,0,0,1,0,0,0,1 @ F,0,0,1,0,0,0,1 @ F,0,0,1,0,0,0,1 @ F,0,0,1,0,0,0,1 @ F,0,0,1,0,0,0,1 @ F,0,0,1,0,0,0,1 @ F,0,0,1,0,0,0,1 @ F,0,0,1,0,0,0,1 @ F,0,0,1,0,0,0,1 @ F,0,0,1,0,0,0,1 @ F,0,0,1,0,0,0,1 @ F,0,0,1,0,0,0,1 @ F,0,0,1,0,0,0,1 @ F,0,0,1,0,0,0,1 @ F,0,0,1,0,0,0,1 @ F,0,0,1,0,0,0,1 @ F,0,0,1,0,0,0,1 @ F,0,0,1,0,0,0,1 @ F,0,0,1,0,0,0,1 @ F,0,0,1,0,0,0,1 @ F,0,1,1,0,31.458082,0,1 @ F,0,1,1,0,31.458082,0,1 @ F,0,0,1,0,0,0,1 @ F,0,0,1,0,0,0,1 @ F,0,0,1,0,0,0,1 @ F,0,0,1,0,0,0,1 @ F,0,0,1,0,0,0,1 @ F,0,0,1,0,0,0,1 @ F,0,0,1,0,0,0,1 @ F,0,0,1,0,0,0,1 @ F,0,0,1,0,0,0,1 @ F,0,0,1,0,0,0,1 @ F,0,0,1,0,0,0,1 @ F,0,0,1,0,0,0,1 @ F,0,0,1,0,0,0,1 @ F,0,0,1,0,0,0,1 @ F,0,0,1,0,0,0,1 @ F,0,0,1,0,0,0,1 @ F,0,0,1,0,0,0,1 @ F,0,0,1,0,0,0,1 @ F,0,0,1,0,0,0,1 @ F,0,0,1,0,0,0,1 @ F,0,0,1,0,0,0,1 @ F,0,0,1,0,0,0,1 @ F,0,0,1,0,0,0,1 @ F,0,0,1,0,0,0,1" unit="px" method="auto" mode="F" radius="0" chamfer_steps="1" flexible="false" use_knot_distance="true" apply_no_radius="true" apply_with_radius="true" only_selected="true" hide_knots="false" /><inkscape:path-effect effect="spiro" id="path-effect844" is_visible="true" lpeversion="1" />
  <svg:style type="text/css" id="style2">
   
    .fil0 {fill:#EF7F1A;fill-rule:nonzero}
   
  </svg:style>
 <inkscape:path-effect effect="spiro" id="path-effect1214" is_visible="true" lpeversion="1" /><inkscape:path-effect effect="spiro" id="path-effect1195" is_visible="true" lpeversion="1" /><inkscape:path-effect effect="spiro" id="path-effect992" is_visible="true" lpeversion="1" /></svg:defs>
 
<svg:g id="path842"><svg:path style="color:#000000;clip-rule:nonzero;fill:#1a5fb4;fill-rule:nonzero;stroke-linecap:round;stroke-linejoin:round;-inkscape-stroke:none;paint-order:fill stroke markers;shape-rendering:auto" d="M 302.39258,68.939453 C 238.90125,68.605672 174.99318,85.175514 120.4375,119.29102 C 65.774066,153.4739 21.758719,204.87057 -1.1523437,266.0293 C -21.285631,319.77304 -23.903134,376.30513 -21.277344,429.58008 C -18.656446,482.75575000000003 -11.043446,533.51664 -9.013671899999999,582.56055 C -6.512103899999999,643.00404 -12.114611999999997,703.82888 -25.574219,762.82227 C -29.175328,778.60591 -26.357554,796.21694 -16.136719,809.44336 C -5.9158832,822.66978 10.962778,830.0 27.458984,830.0 L 114.29297,830.0 C 130.9604,830.0 147.39049,822.79245 157.93555,810.14844 C 168.4806,797.5044200000001 172.63378,779.93694 169.52734,763.49414 C 168.41320000000002,757.5968 167.22419000000002,751.7138600000001 166.08008,745.82227 C 179.59012,763.30431 195.57387,778.8499400000001 213.71289000000002,791.60937 C 260.02798,824.18857 317.70991000000004,837.70634 373.41406,830.6640600000001 C 429.01954,823.63426 480.65777,796.5737 518.8671899999999,756.23242 C 544.2660199999999,729.4164900000001 564.04612,696.49332 573.7382799999999,659.6328100000001 C 583.46854,622.62743 582.6090099999999,582.48377 568.48633,545.6835900000001 C 554.7720599999999,509.94765000000007 529.40257,479.79460000000006 497.31444999999997,459.64258000000007 C 465.27793999999994,439.52296000000007 427.66083999999995,429.98494000000005 390.25194999999997,431.54687000000007 C 373.79790999999994,432.23388000000006 362.2317,433.6239500000001 355.69140999999996,432.32812000000007 C 354.22999,432.0385800000001 353.05944999999997,431.63252000000006 352.11522999999994,431.2382800000001 C 353.18100999999996,430.4562700000001 354.58374999999995,429.5961500000001 356.57811999999996,428.8222700000001 C 363.87575999999996,425.9905300000001 377.5023699999999,425.6360100000001 396.4043,422.4863300000001 C 422.49269999999996,418.13915000000014 447.01223,407.2527700000001 467.77538999999996,391.2675800000001 C 488.52066999999994,375.2961600000001 505.08475,354.58919000000014 516.34375,331.2246100000001 C 534.77918,292.9675500000001 538.36857,248.5129500000001 525.55469,207.72852000000012 C 510.62606,160.21322 475.49886,123.02927 433.98242,100.24805 C 392.82833,77.665654 346.75419,69.172667 302.39258,68.939453 M 302.07812,128.93945 C 338.89787,129.13302 375.10165,136.37818 405.11914,152.84960999999998 C 434.77428000000003,169.12221 458.90751,195.77839999999998 468.3125,225.71289 C 476.32302,251.20904 474.01531,280.84756 462.29102,305.17773 C 455.03976,320.22547 444.21508,333.68438 431.17383,343.72461 C 428.66085,345.65931 425.97445,347.36728999999997 423.2832,349.06055 C 429.84023,340.76988 434.33341,331.44286999999997 436.75391,321.73242 C 439.58157,310.38851 439.66208,299.07759 437.84961000000004,288.44336 C 434.24102000000005,267.27083 423.61111000000005,250.12215999999998 411.82617000000005,236.60155999999998 C 387.1477100000001,208.28851999999998 353.1736000000001,191.16260999999997 317.99219000000005,184.61522999999997 C 283.05062000000004,178.11249999999995 247.86886000000004,181.92753999999996 215.62695000000005,191.75976999999997 C 157.15682000000004,209.59033999999997 104.81174000000006,248.81341999999998 74.87695300000004,303.78515999999996 C 46.64297400000004,355.63354999999996 41.40007100000004,414.62353999999993 46.43945300000004,469.2480499999999 C 51.453549000000045,523.5984599999999 66.00793900000005,574.2959299999999 78.01757800000004,623.0253899999999 C 87.04433800000004,659.6517299999999 95.11778900000004,696.6148199999999 102.60352000000005,733.7968699999999 C 105.03014000000005,745.8500599999999 107.36720000000004,757.9217799999999 109.66602000000005,769.9999999999999 L 34.222656,769.9999999999999 C 47.871389,707.74357 53.571846,643.77703 50.935547,580.07812 C 48.727478,526.72622 41.074525,475.81048 38.650391,426.62695 C 36.231149,377.5427 39.214423,329.30473 55.033203,287.07812 C 72.909228,239.35991 108.33292,197.62371 152.24805,170.16211 C 196.27093000000002,142.63312000000002 249.30509,128.66202 302.07812,128.93945000000002 L 302.07812,128.93945 M 279.79687,241.45312 C 289.06291,241.27448 298.19257,241.96152 307.01562,243.60352 C 330.30392,247.93754 352.19619,259.50515 366.5957,276.02539 C 373.34247000000005,283.76581 377.57111000000003,291.89309000000003 378.70117000000005,298.52344 C 379.25803,301.79064 379.1202200000001,304.8814 378.53711000000004,307.22069999999997 C 377.97254000000004,309.48562 376.84074000000004,311.44077 375.85742000000005,312.49609 C 374.74079000000006,313.69448 372.23441,315.40083 368.77344000000005,316.50781 C 365.1801300000001,317.65712 360.31432000000007,318.33383000000003 354.4941400000001,318.36914 C 342.7782200000001,318.44024 327.00047000000006,315.3373 306.9941400000001,315.77734000000004 C 278.73780000000005,316.39885000000004 250.56231000000008,325.72252000000003 227.79297000000008,344.19336000000004 C 204.85431000000008,362.80155 188.94097000000008,389.65323000000006 185.37695000000008,420.01172 C 181.19589000000008,455.62627000000003 194.61082000000007,489.7461 217.5605500000001,514.66602 C 240.1913700000001,539.23965 270.3746100000001,553.63639 301.1445300000001,559.4765600000001 C 329.8822800000001,564.9310300000001 355.9854400000001,563.1133600000001 378.29883000000007,563.9492200000001 C 400.34940000000006,564.77524 419.73012000000006,568.4636200000001 432.6132800000001,576.9492200000001 C 442.6954800000001,583.58995 450.83733000000007,594.6702200000001 454.3046900000001,606.4941400000001 C 457.7856300000001,618.3643900000002 457.0031200000001,632.2673000000001 452.1933600000001,643.9355500000001 C 448.3260200000001,653.3175300000001 441.6597900000001,662.1328200000002 433.3378900000001,668.9043000000001 C 424.9762300000001,675.7081300000001 414.6160300000001,680.7843600000001 403.59375000000006,683.5585900000001 C 381.5690000000001,689.1020700000001 355.82756000000006,685.4406400000001 333.30859000000004,674.6894500000001 C 304.33146000000005,660.8549600000001 280.20775000000003,634.98486 267.68359000000004,604.9707000000001 C 265.14022000000006,598.8755000000001 262.10710000000006,593.0578600000001 256.95703000000003,587.2832000000001 C 251.80696000000003,581.50854 243.41624000000004,575.1846100000001 232.10742000000005,573.8183600000001 C 220.79861000000005,572.4521100000001 209.75169000000005,577.2108400000001 203.17383000000004,582.5839800000001 C 196.59596000000005,587.9571300000001 192.74033000000003,593.7649400000001 189.44922000000003,599.8300800000001 L 159.25586000000004,655.4746100000001 C 155.69086000000004,662.0444900000001 153.25250000000005,668.8096700000001 151.67578000000003,675.7050800000001 C 146.81957000000003,653.3284100000001 141.76994000000002,630.97018 136.27344000000002,608.6679700000001 C 123.92820000000002,558.5768200000001 110.52123000000002,510.73311000000007 106.18555000000002,463.73633000000007 C 101.87515000000002,417.01364000000007 107.13029000000002,370.01617000000005 127.57031000000002,332.4804700000001 C 149.03226,293.0681200000001 188.80182000000002,262.6680100000001 233.12891000000002,249.15039000000007 C 248.53226,244.45311000000007 264.35348,241.75087000000008 279.79687,241.45312000000007 L 279.79687,241.45312 M 308.31445,375.76367000000005 C 313.42032,375.65137000000004 319.46663,376.20817000000005 326.21680000000003,376.82227000000006 C 318.04842,381.08260000000007 310.04579,387.0150300000001 303.36914,395.45312000000007 C 294.02572000000004,407.26155000000006 288.26362,422.76013000000006 290.85937,440.20508000000007 C 293.18277,455.81962000000004 301.52961,467.9980800000001 311.98633,476.5507800000001 C 322.16270000000003,484.8741900000001 333.47454,489.0923900000001 344.02930000000003,491.1835900000001 C 364.80457,495.2997800000001 381.38565000000006,491.9688000000001 392.75391,491.4941400000001 C 418.16102,490.4333200000001 444.19896,497.13572000000005 465.40430000000003,510.45312000000007 C 486.55804,523.7381300000001 503.65909000000005,544.2207900000001 512.4707000000001,567.18164 C 521.57334,590.90083 522.465,618.68846 515.71094,644.375 C 513.1574400000001,654.08627 509.5206600000001,663.61181 504.96094000000005,672.79492 C 505.9048,670.8223800000001 506.8273300000001,668.8353900000001 507.66602000000006,666.80078 C 517.7221000000001,642.4051900000001 519.37468,615.17047 511.8789100000001,589.60937 C 504.3695400000001,564.00195 488.1111800000001,541.65765 465.61719000000005,526.8418 C 437.92185000000006,508.60003000000006 407.05006000000003,504.98507000000006 380.54492000000005,503.99219000000005 C 354.30260000000004,503.00915000000003 331.33180000000004,504.13353000000006 312.33203000000003,500.52734000000004 C 292.46859,496.75723000000005 273.97745000000003,487.35607000000005 261.69531000000006,474.01953000000003 C 249.73208000000005,461.02928 243.13877000000008,442.57907 244.96680000000006,427.00781000000006 C 246.52556000000007,413.73021000000006 254.41181000000006,399.8619800000001 265.59375000000006,390.79102000000006 C 276.9450100000001,381.58270000000005 292.6456600000001,376.1083100000001 308.3144500000001,375.76367000000005 L 308.31445,375.76367000000005 M 227.04492000000002,656.34961 C 246.34575,687.30991 274.0485,712.88483 307.45898,728.8359399999999 C 340.91019,744.80648 380.11702,751.3389999999999 418.23828000000003,741.7441399999999 C 437.28901,736.9491999999999 455.51474,728.2120899999999 471.20703000000003,715.4433599999999 C 482.70654,706.0862699999999 492.57094,694.6843899999999 500.18164,681.7148399999999 C 493.32129000000003,693.6240799999998 484.90947,704.8340399999998 475.30664,714.9726599999999 C 446.56353,745.3194599999999 406.87679,765.9548799999999 365.88867000000005,771.1367199999999 C 324.99923000000007,776.3060799999998 281.55141000000003,765.9725699999999 248.23242000000005,742.5351599999999 C 234.12504000000004,732.6116699999999 221.56528000000006,720.2913799999999 211.27344000000005,706.3476599999999 C 211.37024000000005,706.4788599999999 209.47292000000004,702.3464099999999 209.40625000000006,697.0839799999999 C 209.33955000000006,691.8215599999999 211.01751000000004,685.8844099999999 211.99023000000005,684.0917999999999 L 227.04492000000002,656.34961" id="path5322" /></svg:g></svg:svg>

<svg:svg xmlns:cc="http://creativecommons.org/ns#" xmlns:dc="http://purl.org/dc/elements/1.1/" xmlns:inkscape="http://www.inkscape.org/namespaces/inkscape" xmlns:rdf="http://www.w3.org/1999/02/22-rdf-syntax-ns#" xmlns:sodipodi="http://sodipodi.sourceforge.net/DTD/sodipodi-0.dtd" xmlns:svg="http://www.w3.org/2000/svg" xml:space="preserve" width="1000" height="1000" version="1.1" style="clip-rule:evenodd;fill-rule:evenodd;image-rendering:optimizeQuality;shape-rendering:geometricPrecision;text-rendering:geometricPrecision" viewBox="0 0 1000 1000" id="svg10" sodipodi:docname="ഭ.svg" inkscape:version="1.0.2 (e86c870879, 2021-01-15)"><svg:metadata id="metadata14"><rdf:RDF><cc:Work rdf:about=""><dc:format>image/svg+xml</dc:format><dc:type rdf:resource="http://purl.org/dc/dcmitype/StillImage" /><dc:title /></cc:Work></rdf:RDF></svg:metadata><sodipodi:namedview pagecolor="#ffffff" bordercolor="#666666" borderopacity="1" objecttolerance="10" gridtolerance="10" guidetolerance="10" inkscape:pageopacity="0" inkscape:pageshadow="2" inkscape:window-width="1920" inkscape:window-height="1007" id="namedview12" showgrid="false" inkscape:zoom="0.84890884" inkscape:cx="327.86116" inkscape:cy="503.78033" inkscape:window-x="1920" inkscape:window-y="0" inkscape:window-maximized="1" inkscape:current-layer="svg10" showguides="true" inkscape:guide-bbox="true" inkscape:document-rotation="0" inkscape:pagecheckerboard="0"><sodipodi:guide position="0,1000" orientation="0,1" id="guide16" inkscape:label="" inkscape:locked="true" inkscape:color="rgb(0,0,255)" /><sodipodi:guide position="1763.3122,2036.1693" orientation="1000,0" id="guide18" /><sodipodi:guide position="0,200" orientation="0,1" id="guide20" inkscape:label="base" inkscape:locked="true" inkscape:color="rgb(0,0,255)" /><inkscape:grid type="xygrid" id="grid24" originx="-473.37552" originy="-489.69235" /><sodipodi:guide position="0,0" orientation="0,1" id="guide34" inkscape:label="bottom" inkscape:locked="true" inkscape:color="rgb(0,0,255)" /><sodipodi:guide position="225.05109,1693.3186" orientation="0,1" id="guide44" inkscape:label="" inkscape:locked="false" inkscape:color="rgb(0,0,255)" /><sodipodi:guide position="0,900" orientation="0,1" id="guide46" inkscape:label="" inkscape:locked="true" inkscape:color="rgb(0,0,255)" /><sodipodi:guide position="552.33818,623.39461" orientation="-1,0" id="guide841" inkscape:label="width" inkscape:locked="false" inkscape:color="rgb(0,0,255)" /></sodipodi:namedview>
 <svg:defs id="defs4"><inkscape:path-effect effect="fillet_chamfer" id="path-effect843" is_visible="true" lpeversion="1" satellites_param="F,0,1,1,0,31.458082,0,1 @ F,0,1,1,0,31.458082,0,1 @ F,0,0,1,0,0,0,1 @ F,0,0,1,0,0,0,1 @ F,0,0,1,0,0,0,1 @ F,0,0,1,0,0,0,1 @ F,0,0,1,0,0,0,1 @ F,0,0,1,0,0,0,1 @ F,0,0,1,0,0,0,1 @ F,0,0,1,0,0,0,1 @ F,0,0,1,0,0,0,1 @ F,0,0,1,0,0,0,1 @ F,0,0,1,0,0,0,1 @ F,0,0,1,0,0,0,1 @ F,0,0,1,0,0,0,1 @ F,0,0,1,0,0,0,1 @ F,0,0,1,0,0,0,1 @ F,0,0,1,0,0,0,1 @ F,0,0,1,0,0,0,1 @ F,0,0,1,0,0,0,1 @ F,0,0,1,0,0,0,1 @ F,0,0,1,0,0,0,1 @ F,0,0,1,0,0,0,1 @ F,0,0,1,0,0,0,1 @ F,0,1,1,0,31.458082,0,1 @ F,0,1,1,0,31.458082,0,1 @ F,0,0,1,0,0,0,1 @ F,0,0,1,0,0,0,1 @ F,0,0,1,0,0,0,1 @ F,0,0,1,0,0,0,1 @ F,0,0,1,0,0,0,1 @ F,0,0,1,0,0,0,1 @ F,0,0,1,0,0,0,1 @ F,0,0,1,0,0,0,1 @ F,0,0,1,0,0,0,1 @ F,0,0,1,0,0,0,1 @ F,0,0,1,0,0,0,1 @ F,0,0,1,0,0,0,1 @ F,0,0,1,0,0,0,1 @ F,0,0,1,0,0,0,1 @ F,0,0,1,0,0,0,1 @ F,0,0,1,0,0,0,1 @ F,0,0,1,0,0,0,1 @ F,0,0,1,0,0,0,1 @ F,0,0,1,0,0,0,1 @ F,0,0,1,0,0,0,1 @ F,0,0,1,0,0,0,1 @ F,0,0,1,0,0,0,1 @ F,0,0,1,0,0,0,1 @ F,0,0,1,0,0,0,1" unit="px" method="auto" mode="F" radius="0" chamfer_steps="1" flexible="false" use_knot_distance="true" apply_no_radius="true" apply_with_radius="true" only_selected="true" hide_knots="false" /><inkscape:path-effect effect="spiro" id="path-effect844" is_visible="true" lpeversion="1" />
  <svg:style type="text/css" id="style2">
   
    .fil0 {fill:#EF7F1A;fill-rule:nonzero}
   
  </svg:style>
 <inkscape:path-effect effect="spiro" id="path-effect1214" is_visible="true" lpeversion="1" /><inkscape:path-effect effect="spiro" id="path-effect1195" is_visible="true" lpeversion="1" /><inkscape:path-effect effect="spiro" id="path-effect992" is_visible="true" lpeversion="1" /></svg:defs>
 
<svg:g id="path842"><svg:path style="color:#000000;clip-rule:nonzero;fill:#1a5fb4;fill-rule:nonzero;stroke-linecap:round;stroke-linejoin:round;-inkscape-stroke:none;shape-rendering:auto" d="M 302.39258,68.939453 C 238.90125,68.605672 174.99318,85.175514 120.4375,119.29102 65.774066,153.4739 21.758719,204.87057 -1.1523437,266.0293 -21.285631,319.77304 -23.903134,376.30513 -21.277344,429.58008 c 2.620898,53.17567 10.233898,103.93656 12.2636721,152.98047 2.501568,60.44349 -3.1009401,121.26833 -16.5605471,180.26172 -3.601109,15.78364 -0.783335,33.39467 9.4375,46.62109 C -5.9158832,822.66978 10.962778,830 27.458984,830 h 86.833986 c 16.66743,0 33.09752,-7.20755 43.64258,-19.85156 10.54505,-12.64402 14.69823,-30.2115 11.59179,-46.6543 -1.11414,-5.89734 -2.30315,-11.78028 -3.44726,-17.67187 13.51004,17.48204 29.49379,33.02767 47.63281,45.7871 46.31509,32.5792 103.99702,46.09697 159.70117,39.05469 55.60548,-7.0298 107.24371,-34.09036 145.45313,-74.43164 25.39883,-26.81593 45.17893,-59.7391 54.87109,-96.59961 9.73026,-37.00538 8.87073,-77.14904 -5.25195,-113.94922 -13.71427,-35.73594 -39.08376,-65.88899 -71.17188,-86.04101 -32.03651,-20.11962 -69.65361,-29.65764 -107.0625,-28.09571 -16.45404,0.68701 -28.02025,2.07708 -34.56054,0.78125 -1.46142,-0.28954 -2.63196,-0.6956 -3.57618,-1.08984 1.06578,-0.78201 2.46852,-1.64213 4.46289,-2.41601 7.29764,-2.83174 20.92425,-3.18626 39.82618,-6.33594 26.0884,-4.34718 50.60793,-15.23356 71.37109,-31.21875 20.74528,-15.97142 37.30936,-36.67839 48.56836,-60.04297 18.43543,-38.25706 22.02482,-82.71166 9.21094,-123.49609 C 510.62606,160.21322 475.49886,123.02927 433.98242,100.24805 392.82833,77.665654 346.75419,69.172667 302.39258,68.939453 Z m -0.31446,59.999997 c 36.81975,0.19357 73.02353,7.43873 103.04102,23.91016 29.65514,16.2726 53.78837,42.92879 63.19336,72.86328 8.01052,25.49615 5.70281,55.13467 -6.02148,79.46484 -7.25126,15.04774 -18.07594,28.50665 -31.11719,38.54688 -2.51298,1.9347 -5.19938,3.64268 -7.89063,5.33594 6.55703,-8.29067 11.05021,-17.61768 13.47071,-27.32813 2.82766,-11.34391 2.90817,-22.65483 1.0957,-33.28906 -3.60859,-21.17253 -14.2385,-38.3212 -26.02344,-51.8418 -24.67846,-28.31304 -58.65257,-45.43895 -93.83398,-51.98633 -34.94157,-6.50273 -70.12333,-2.68769 -102.36524,7.14454 -58.47013,17.83057 -110.81521,57.05365 -140.749997,112.02539 -28.233979,51.84839 -33.476882,110.83838 -28.4375,165.46289 5.014096,54.35041 19.568486,105.04788 31.578125,153.77734 9.02676,36.62634 17.100211,73.58943 24.585942,110.77148 2.42662,12.05319 4.76368,24.12491 7.0625,36.20313 H 34.222656 C 47.871389,707.74357 53.571846,643.77703 50.935547,580.07812 48.727478,526.72622 41.074525,475.81048 38.650391,426.62695 36.231149,377.5427 39.214423,329.30473 55.033203,287.07812 72.909228,239.35991 108.33292,197.62371 152.24805,170.16211 c 44.02288,-27.52899 97.05704,-41.50009 149.83007,-41.22266 z m -22.28125,112.51367 c 9.26604,-0.17864 18.3957,0.5084 27.21875,2.1504 23.2883,4.33402 45.18057,15.90163 59.58008,32.42187 6.74677,7.74042 10.97541,15.8677 12.10547,22.49805 0.55686,3.2672 0.41905,6.35796 -0.16406,8.69726 -0.56457,2.26492 -1.69637,4.22007 -2.67969,5.27539 -1.11663,1.19839 -3.62301,2.90474 -7.08398,4.01172 -3.59331,1.14931 -8.45912,1.82602 -14.2793,1.86133 -11.71592,0.0711 -27.49367,-3.03184 -47.5,-2.5918 -28.25634,0.62151 -56.43183,9.94518 -79.20117,28.41602 -22.93866,18.60819 -38.852,45.45987 -42.41602,75.81836 -4.18106,35.61455 9.23387,69.73438 32.1836,94.6543 22.63082,24.57363 52.81406,38.97037 83.58398,44.81054 28.73775,5.45447 54.84091,3.6368 77.1543,4.47266 22.05057,0.82602 41.43129,4.5144 54.31445,13 10.0822,6.64073 18.22405,17.721 21.69141,29.54492 3.48094,11.87025 2.69843,25.77316 -2.11133,37.44141 -3.86734,9.38198 -10.53357,18.19727 -18.85547,24.96875 -8.36166,6.80383 -18.72186,11.88006 -29.74414,14.65429 -22.02475,5.54348 -47.76619,1.88205 -70.28516,-8.86914 -28.97713,-13.83449 -53.10084,-39.70459 -65.625,-69.71875 -2.54337,-6.0952 -5.57649,-11.91284 -10.72656,-17.6875 -5.15007,-5.77466 -13.54079,-12.09859 -24.84961,-13.46484 -11.30881,-1.36625 -22.35573,3.39248 -28.93359,8.76562 -6.57787,5.37315 -10.4335,11.18096 -13.72461,17.2461 l -30.19336,55.64453 c -3.565,6.56988 -6.00336,13.33506 -7.58008,20.23047 -4.85621,-22.37667 -9.90584,-44.7349 -15.40234,-67.03711 -12.34524,-50.09115 -25.75221,-97.93486 -30.08789,-144.93164 -4.3104,-46.72269 0.94474,-93.72016 21.38476,-131.25586 21.46195,-39.41235 61.23151,-69.81246 105.5586,-83.33008 15.40335,-4.69728 31.22457,-7.39952 46.66796,-7.69727 z m 28.51758,134.31055 c 5.10587,-0.1123 11.15218,0.4445 17.90235,1.0586 -8.16838,4.26033 -16.17101,10.19276 -22.84766,18.63085 -9.34342,11.80843 -15.10552,27.30701 -12.50977,44.75196 2.3234,15.61454 10.67024,27.793 21.12696,36.3457 10.17637,8.32341 21.48821,12.54161 32.04297,14.63281 20.77527,4.11619 37.35635,0.78521 48.72461,0.31055 25.40711,-1.06082 51.44505,5.64158 72.65039,18.95898 21.15374,13.28501 38.25479,33.76767 47.0664,56.72852 9.10264,23.71919 9.9943,51.50682 3.24024,77.19336 -2.5535,9.71127 -6.19028,19.23681 -10.75,28.41992 0.94386,-1.97254 1.86639,-3.95953 2.70508,-5.99414 10.05608,-24.39559 11.70866,-51.63031 4.21289,-77.19141 -7.50937,-25.60742 -23.76773,-47.95172 -46.26172,-62.76757 -27.69534,-18.24177 -58.56713,-21.85673 -85.07227,-22.84961 -26.24232,-0.98304 -49.21312,0.14134 -68.21289,-3.46485 -19.86344,-3.77011 -38.35458,-13.17127 -50.63672,-26.50781 -11.96323,-12.99025 -18.55654,-31.44046 -16.72851,-47.01172 1.55876,-13.2776 9.44501,-27.14583 20.62695,-36.21679 11.35126,-9.20832 27.05191,-14.68271 42.7207,-15.02735 z m -81.26953,280.58594 c 19.30083,30.9603 47.00358,56.53522 80.41406,72.48633 33.45121,15.97054 72.65804,22.50306 110.7793,12.9082 19.05073,-4.79494 37.27646,-13.53205 52.96875,-26.30078 11.49951,-9.35709 21.36391,-20.75897 28.97461,-33.72852 -6.86035,11.90924 -15.27217,23.1192 -24.875,33.25782 -28.74311,30.3468 -68.42985,50.98222 -109.41797,56.16406 -40.88944,5.16936 -84.33726,-5.16415 -117.65625,-28.60156 -14.10738,-9.92349 -26.66714,-22.24378 -36.95898,-36.1875 0.0968,0.1312 -1.80052,-4.00125 -1.86719,-9.26368 -0.0667,-5.26242 1.61126,-11.19957 2.58398,-12.99218 z" id="path5310" /></svg:g></svg:svg>
